X: 1
T: Maggie In The Woods
M: 12/8
L: 1/8
R: slide
K: Gmaj
|: BA |
G2 D G2 A B2 e ege | d2 B BAB d2 B ABA |
G3 G2 A B3 e3 | d2 B A2 B G3 G :|
|: B/c/d |
g2 f e2 d e2 f gfe | d2 B BAB d2 B A2 d |
g3 e2 d e3 g>fe | d2 B A2 B G3- G :|
